images/thoughtbot-logo-for-readmes.svg

<svg width="250" height="60" viewBox="0 0 250 60" aria-labelledby="thoughtbot-logo-title" role="img" xmlns="http://www.w3.org/2000/svg">
  <title id="thoughtbot-logo-title">thoughtbot</title>
  <path d="M106.226 39.734h-4.135v-9.791c0-1.854-.285-3.184-.855-3.992-.57-.808-1.569-1.236-2.947-1.236-1.664 0-2.947.618-3.85 1.806v13.213h-4.135V12.262h4.135v10.552c1.283-1.093 2.71-1.616 4.23-1.616 5.038 0 7.605 2.899 7.605 8.745v9.79h-.048zm2.995-9.078c0-1.33.19-2.567.665-3.707a8.82 8.82 0 0 1 1.854-2.995 8.323 8.323 0 0 1 2.899-1.996c1.14-.475 2.376-.713 3.802-.713 1.378 0 2.662.238 3.755.713a8.323 8.323 0 0 1 2.9 1.996 8.82 8.82 0 0 1 1.853 2.995c.427 1.14.665 2.376.665 3.707 0 1.33-.19 2.566-.618 3.707a8.82 8.82 0 0 1-1.853 2.994 8.323 8.323 0 0 1-2.9 1.997c-1.14.475-2.376.713-3.802.713-1.426 0-2.71-.238-3.802-.713-1.14-.476-2.091-1.141-2.852-1.997a8.82 8.82 0 0 1-1.854-2.994c-.522-1.14-.712-2.376-.712-3.707zm4.23 0c0 1.806.427 3.28 1.283 4.373.855 1.093 2.091 1.615 3.612 1.615 1.52 0 2.757-.522 3.612-1.615.856-1.094 1.283-2.52 1.283-4.373 0-1.854-.427-3.28-1.283-4.325-.855-1.046-2.091-1.616-3.612-1.616-1.52 0-2.757.523-3.612 1.616-.856 1.045-1.283 2.471-1.283 4.325zm32.794 9.078h-3.802l-.19-1.378c-1.236 1.14-2.662 1.71-4.373 1.71-4.943 0-7.414-2.851-7.414-8.507V21.53h4.135v9.744c0 1.806.285 3.184.903 3.992.618.856 1.568 1.283 2.899 1.283 1.616 0 2.852-.57 3.66-1.663V21.578h4.135v18.156h.047zm11.312 9.125c-1.426 0-2.662-.142-3.755-.427-1.093-.286-1.948-.666-2.661-1.189-.713-.522-1.236-1.093-1.616-1.71-.38-.666-.57-1.331-.57-2.092 0-1.806 1.045-3.137 3.089-4.087-1.141-.618-1.711-1.474-1.711-2.52 0-1.093.618-1.948 1.9-2.566-1.948-1.33-2.898-3.327-2.898-5.893 0-1.046.19-1.997.522-2.852.333-.903.808-1.664 1.474-2.282.618-.617 1.426-1.14 2.329-1.52.903-.38 1.948-.57 3.089-.57 1.616 0 3.042.38 4.278 1.187 1.188-.57 2.519-.855 4.087-.855h.903l-.333 2.661h-1.378c-.428 0-.903.048-1.378.096.855 1.188 1.283 2.566 1.283 4.087 0 .998-.143 1.901-.475 2.757a7.106 7.106 0 0 1-1.426 2.281c-.618.665-1.426 1.188-2.329 1.568-.903.38-1.949.57-3.09.57-.76 0-1.473-.094-2.138-.237-.38.19-.57.428-.57.713 0 .238.095.38.237.57.143.143.428.286.808.38.38.143.856.238 1.474.333.617.095 1.425.238 2.376.333a56 56 0 0 1 2.471.475c.856.19 1.616.476 2.33.903.712.428 1.283.903 1.758 1.521.475.618.713 1.474.76 2.472 0 1.758-.76 3.184-2.329 4.23-1.52 1.14-3.707 1.663-6.511 1.663zm-.808-24.524c-1.188 0-2.091.38-2.71 1.093-.617.713-.95 1.71-.95 2.947 0 1.235.333 2.233.95 2.946.619.713 1.522 1.093 2.71 1.093s2.091-.38 2.71-1.093c.617-.76.95-1.758.95-2.994 0-1.236-.333-2.234-.95-2.947-.619-.665-1.522-1.045-2.71-1.045zm.998 16.444l-2.519-.38c-.76.238-1.426.618-1.901 1.046-.475.475-.713.998-.713 1.663 0 .808.428 1.474 1.283 1.997.856.522 2.044.76 3.613.76 1.52 0 2.756-.238 3.707-.713.95-.475 1.426-1.14 1.426-1.901 0-.713-.428-1.236-1.236-1.616-.903-.333-2.091-.618-3.66-.856zM208.793 40.067c-1.901 0-3.47-.618-4.848-1.807l-.143 1.426h-3.85V12.262h4.135v10.504c1.189-1.045 2.757-1.568 4.706-1.568 1.33 0 2.519.237 3.612.713a7.769 7.769 0 0 1 2.757 1.996c.76.855 1.33 1.853 1.758 2.994.428 1.14.618 2.377.618 3.707 0 1.331-.19 2.567-.618 3.708a8.598 8.598 0 0 1-1.758 2.994 7.769 7.769 0 0 1-2.757 1.996c-1.046.523-2.234.76-3.612.76zm-.333-15.352c-1.426 0-2.519.523-3.327 1.568-.808 1.046-1.188 2.52-1.188 4.373 0 1.901.38 3.374 1.188 4.42.808 1.046 1.901 1.568 3.327 1.568 1.473 0 2.614-.57 3.517-1.663.856-1.093 1.283-2.567 1.283-4.325 0-1.759-.427-3.185-1.283-4.278-.808-1.14-1.996-1.663-3.517-1.663zM184.173 39.734h-4.135v-9.791c0-1.854-.285-3.184-.903-3.992-.57-.808-1.568-1.236-2.947-1.236-1.663 0-2.947.618-3.85 1.806v13.213h-4.135V12.262h4.135v10.552c1.284-1.093 2.71-1.616 4.23-1.616 5.038 0 7.605 2.899 7.605 8.745v9.79zm12.738-3.042l-.38 3.422h-3.137c-.808 0-1.521-.143-2.14-.38-.617-.238-1.14-.57-1.52-.998-.38-.428-.713-.903-.903-1.474a5.745 5.745 0 0 1-.285-1.806V24.905h-2.757l.38-3.375h2.377v-5.418l4.135-.428v5.846h4.23v3.375h-4.23v8.65c0 .76.047 1.33.095 1.759.047.427.19.76.38.95.19.19.523.333.903.38.428.048.998.096 1.711.096h1.14v-.048zM219.772 30.656c0-1.33.19-2.567.665-3.707a8.82 8.82 0 0 1 1.854-2.995 8.323 8.323 0 0 1 2.9-1.996c1.14-.475 2.376-.713 3.801-.713 1.379 0 2.662.238 3.755.713 1.14.475 2.091 1.14 2.852 1.996.76.856 1.426 1.854 1.853 2.995.428 1.14.666 2.376.666 3.707 0 1.33-.238 2.566-.666 3.707a8.82 8.82 0 0 1-1.853 2.994 8.323 8.323 0 0 1-2.9 1.997c-1.14.475-2.376.713-3.802.713-1.426 0-2.709-.238-3.802-.713a8.323 8.323 0 0 1-2.9-1.997 8.82 8.82 0 0 1-1.853-2.994c-.38-1.14-.57-2.376-.57-3.707zm4.23 0c0 1.806.428 3.28 1.283 4.373.856 1.093 2.091 1.615 3.612 1.615s2.757-.522 3.613-1.615c.855-1.094 1.283-2.52 1.283-4.373 0-1.854-.428-3.28-1.283-4.325-.856-1.046-2.092-1.616-3.613-1.616-1.52 0-2.756.523-3.612 1.616-.855 1.045-1.283 2.471-1.283 4.325zm25.713 6.036l-.38 3.422h-3.137c-.808 0-1.521-.143-2.14-.38-.617-.238-1.14-.57-1.52-.998-.38-.428-.713-.903-.903-1.474a5.745 5.745 0 0 1-.285-1.806V24.905h-2.757l.38-3.375h2.377v-5.418l4.135-.428v5.846h4.23v3.375h-4.23v8.65c0 .76.047 1.33.095 1.759.047.427.19.76.38.95.19.19.523.333.903.38.428.048.998.096 1.711.096h1.14v-.048zM87.31 36.692l-.38 3.422h-3.137c-.808 0-1.521-.143-2.139-.38-.618-.238-1.14-.57-1.52-.998a3.644 3.644 0 0 1-.904-1.474 5.745 5.745 0 0 1-.285-1.806V24.905h-2.757l.38-3.375h2.377v-5.418l4.135-.428v5.846h4.23v3.375h-4.23v8.65c0 .76.047 1.33.095 1.759.047.427.19.76.38.95.19.19.523.333.903.38.428.048.998.096 1.711.096h1.14v-.048z" fill="#ED3E44" fill-rule="nonzero"/><path d="M30 0C13.438 0 0 13.438 0 30c0 16.562 13.438 30 30 30 16.562 0 30-13.438 30-30C60 13.438 46.562 0 30 0z" fill="#ED3E44"/><path d="M22.576 32.414h-1.188v8.556c.428.475.665 1.093.665 1.758 0 .856-.38 1.616-.998 2.091l-.76-.76a1.69 1.69 0 0 0 .665-1.378c0-.951-.76-1.711-1.711-1.711-.95 0-1.711.76-1.711 1.71 0 .571.285 1.046.665 1.331l-.76.76c-.618-.522-.95-1.235-.95-2.09 0-.666.237-1.284.665-1.759V27.614c.047-.523.428-.903.95-.903h24.43c.523 0 .903.428.95.903V40.97c.428.475.666 1.093.666 1.758 0 .856-.38 1.616-.998 2.091l-.76-.76c.427-.333.665-.808.665-1.33 0-.951-.76-1.712-1.711-1.712-.95 0-1.711.76-1.711 1.711 0 .57.285 1.046.665 1.378l-.76.76c-.618-.522-.998-1.282-.998-2.09 0-.666.237-1.284.665-1.759v-8.555h-1.236v18.06l.808.476v1.473h-8.032v-1.473l.808-.475v-5.466h-2.424v5.466l.808.475v1.473h-8.175v-1.473l.808-.475V32.414zm7.795-19.581c1.71 0 3.232.618 4.182 1.52l.76-1.045c-1.188-1.046-2.946-1.759-4.942-1.759s-3.755.666-4.943 1.759l.76 1.046c.95-.903 2.472-1.521 4.183-1.521z" fill="#FFF" fill-rule="nonzero"/><path d="M30.418 10.124c1.854 0 3.565.522 4.896 1.52.237.19.475.428.713.618l.76-1.093c-1.473-1.426-3.755-2.376-6.321-2.376-2.614 0-4.99.95-6.417 2.471l.76 1.093c.239-.285.524-.522.809-.76 1.188-.95 2.947-1.473 4.8-1.473z" fill="#FFF" fill-rule="nonzero"/><path d="M30.37 7.51c2.947 0 5.562 1.093 7.082 2.709l.76-1.046c-1.805-1.759-4.657-2.947-7.841-2.947-3.185 0-6.036 1.14-7.842 2.947l.76 1.046c1.52-1.664 4.135-2.71 7.082-2.71zm-2.376 12.595c0 .427-.38.808-.808.808a.833.833 0 0 1-.808-.808c0-.428.38-.808.808-.808.476 0 .808.332.808.808z" fill="#FFF" fill-rule="nonzero"/><path d="M33.555 21.673a1.582 1.582 0 0 1-1.568-1.568c0-.856.713-1.569 1.568-1.569.856 0 1.569.713 1.569 1.569 0 .855-.713 1.568-1.569 1.568zm-6.369 0a1.582 1.582 0 0 1-1.568-1.568c0-.856.713-1.569 1.568-1.569.856 0 1.569.713 1.569 1.569.047.855-.666 1.568-1.569 1.568zm9.411-5.941H24.144c-.522 0-.95.428-.95.903v8.08c0 .523.428.903.95.903h12.453a.902.902 0 0 0 .903-.903v-8.08c0-.475-.428-.903-.903-.903z" fill="#FFF" fill-rule="nonzero"/><path d="M34.363 20.105c0 .427-.38.808-.808.808a.833.833 0 0 1-.808-.808c0-.428.38-.808.808-.808.428 0 .808.332.808.808z" fill="#FFF" fill-rule="nonzero"/>
</svg>

<svg width="250" height="60" viewBox="0 0 250 60" aria-labelledby="thoughtbot-logo-title" role="img" xmlns="http://www.w3.org/2000/svg">
  <title id="thoughtbot-logo-title">thoughtbot</title>
  <path d="M106.226,39.734 L102.091,39.734 L102.091,29.943 C102.091,28.089 101.806,26.759 101.236,25.951 C100.666,25.143 99.667,24.715 98.289,24.715 C96.625,24.715 95.342,25.333 94.439,26.521 L94.439,39.734 L90.304,39.734 L90.304,12.262 L94.439,12.262 L94.439,22.814 C95.722,21.721 97.149,21.198 98.669,21.198 C103.707,21.198 106.274,24.097 106.274,29.943 L106.274,39.733 L106.226,39.733 L106.226,39.734 Z M109.221,30.656 C109.221,29.326 109.411,28.089 109.886,26.949 C110.296336,25.8361626 110.926909,24.8175189 111.74,23.954 C112.552995,23.0896129 113.541427,22.4090645 114.639,21.958 C115.779,21.483 117.015,21.245 118.441,21.245 C119.819,21.245 121.103,21.483 122.196,21.958 C123.293931,22.4089401 124.282715,23.0894958 125.096,23.954 C125.908733,24.8176082 126.538962,25.8362457 126.949,26.949 C127.376,28.089 127.614,29.325 127.614,30.656 C127.614,31.986 127.424,33.222 126.996,34.363 C126.585842,35.4753987 125.955619,36.4936861 125.143,37.357 C124.329813,38.2218653 123.341023,38.902767 122.243,39.354 C121.103,39.829 119.867,40.067 118.441,40.067 C117.015,40.067 115.731,39.829 114.639,39.354 C113.499,38.878 112.548,38.213 111.787,37.357 C110.974022,36.4937754 110.343456,35.4754818 109.933,34.363 C109.411,33.223 109.221,31.987 109.221,30.656 L109.221,30.656 Z M113.451,30.656 C113.451,32.462 113.878,33.936 114.734,35.029 C115.589,36.122 116.825,36.644 118.346,36.644 C119.866,36.644 121.103,36.122 121.958,35.029 C122.814,33.935 123.241,32.509 123.241,30.656 C123.241,28.802 122.814,27.376 121.958,26.331 C121.103,25.285 119.867,24.715 118.346,24.715 C116.826,24.715 115.589,25.238 114.734,26.331 C113.878,27.376 113.451,28.802 113.451,30.656 Z M146.245,39.734 L142.443,39.734 L142.253,38.356 C141.017,39.496 139.591,40.066 137.88,40.066 C132.937,40.066 130.466,37.215 130.466,31.559 L130.466,21.53 L134.601,21.53 L134.601,31.274 C134.601,33.08 134.886,34.458 135.504,35.266 C136.122,36.122 137.072,36.549 138.403,36.549 C140.019,36.549 141.255,35.979 142.063,34.886 L142.063,21.578 L146.198,21.578 L146.198,39.734 L146.245,39.734 L146.245,39.734 Z M157.557,48.859 C156.131,48.859 154.895,48.717 153.802,48.432 C152.709,48.146 151.854,47.766 151.141,47.243 C150.428,46.721 149.905,46.15 149.525,45.533 C149.145,44.867 148.955,44.202 148.955,43.441 C148.955,41.635 150,40.304 152.044,39.354 C150.903,38.736 150.333,37.88 150.333,36.834 C150.333,35.741 150.951,34.886 152.233,34.268 C150.285,32.938 149.335,30.941 149.335,28.375 C149.335,27.329 149.525,26.378 149.857,25.523 C150.19,24.62 150.665,23.859 151.331,23.241 C151.949,22.624 152.757,22.101 153.66,21.721 C154.563,21.341 155.608,21.151 156.749,21.151 C158.365,21.151 159.791,21.531 161.027,22.338 C162.215,21.768 163.546,21.483 165.114,21.483 L166.017,21.483 L165.684,24.144 L164.306,24.144 C163.878,24.144 163.403,24.192 162.928,24.24 C163.783,25.428 164.211,26.806 164.211,28.327 C164.211,29.325 164.068,30.228 163.736,31.084 C163.410232,31.9281906 162.926227,32.7023939 162.31,33.365 C161.692,34.03 160.884,34.553 159.981,34.933 C159.078,35.313 158.032,35.503 156.891,35.503 C156.131,35.503 155.418,35.409 154.753,35.266 C154.373,35.456 154.183,35.694 154.183,35.979 C154.183,36.217 154.278,36.359 154.42,36.549 C154.563,36.692 154.848,36.835 155.228,36.929 C155.608,37.072 156.084,37.167 156.702,37.262 C157.319,37.357 158.127,37.5 159.078,37.595 C159.90512,37.7348062 160.728995,37.8931795 161.549,38.07 C162.405,38.26 163.165,38.546 163.879,38.973 C164.591,39.401 165.162,39.876 165.637,40.494 C166.112,41.112 166.35,41.968 166.397,42.966 C166.397,44.724 165.637,46.15 164.068,47.196 C162.548,48.336 160.361,48.859 157.557,48.859 L157.557,48.859 Z M156.749,24.335 C155.561,24.335 154.658,24.715 154.039,25.428 C153.422,26.141 153.089,27.138 153.089,28.375 C153.089,29.61 153.422,30.608 154.039,31.321 C154.658,32.034 155.561,32.414 156.749,32.414 C157.937,32.414 158.84,32.034 159.459,31.321 C160.076,30.561 160.409,29.563 160.409,28.327 C160.409,27.091 160.076,26.093 159.459,25.38 C158.84,24.715 157.937,24.335 156.749,24.335 Z M157.747,40.779 L155.228,40.399 C154.468,40.637 153.802,41.017 153.327,41.445 C152.852,41.92 152.614,42.443 152.614,43.108 C152.614,43.916 153.042,44.582 153.897,45.105 C154.753,45.627 155.941,45.865 157.51,45.865 C159.03,45.865 160.266,45.627 161.217,45.152 C162.167,44.677 162.643,44.012 162.643,43.251 C162.643,42.538 162.215,42.015 161.407,41.635 C160.504,41.302 159.316,41.017 157.747,40.779 L157.747,40.779 Z M208.793,40.067 C206.892,40.067 205.323,39.449 203.945,38.26 L203.802,39.686 L199.952,39.686 L199.952,12.262 L204.087,12.262 L204.087,22.766 C205.276,21.721 206.844,21.198 208.793,21.198 C210.123,21.198 211.312,21.435 212.405,21.911 C213.460239,22.3643676 214.401834,23.0460589 215.162,23.907 C215.922,24.762 216.492,25.76 216.92,26.901 C217.348,28.041 217.538,29.278 217.538,30.608 C217.538,31.939 217.348,33.175 216.92,34.316 C216.543696,35.423164 215.945501,36.4419318 215.162,37.31 C214.401834,38.1709411 213.460239,38.8526324 212.405,39.306 C211.359,39.829 210.171,40.066 208.793,40.066 L208.793,40.067 Z M208.46,24.715 C207.034,24.715 205.941,25.238 205.133,26.283 C204.325,27.329 203.945,28.803 203.945,30.656 C203.945,32.557 204.325,34.03 205.133,35.076 C205.941,36.122 207.034,36.644 208.46,36.644 C209.933,36.644 211.074,36.074 211.977,34.981 C212.833,33.888 213.26,32.414 213.26,30.656 C213.26,28.897 212.833,27.471 211.977,26.378 C211.169,25.238 209.981,24.715 208.46,24.715 L208.46,24.715 Z M184.173,39.734 L180.038,39.734 L180.038,29.943 C180.038,28.089 179.753,26.759 179.135,25.951 C178.565,25.143 177.567,24.715 176.188,24.715 C174.525,24.715 173.241,25.333 172.338,26.521 L172.338,39.734 L168.203,39.734 L168.203,12.262 L172.338,12.262 L172.338,22.814 C173.622,21.721 175.048,21.198 176.568,21.198 C181.606,21.198 184.173,24.097 184.173,29.943 L184.173,39.733 L184.173,39.734 Z M196.911,36.692 L196.531,40.114 L193.394,40.114 C192.586,40.114 191.873,39.971 191.254,39.734 C190.637,39.496 190.114,39.164 189.734,38.736 C189.354,38.308 189.021,37.833 188.831,37.262 C188.640202,36.6790736 188.543983,36.069354 188.546,35.456 L188.546,24.905 L185.789,24.905 L186.169,21.53 L188.546,21.53 L188.546,16.112 L192.681,15.684 L192.681,21.53 L196.911,21.53 L196.911,24.905 L192.681,24.905 L192.681,33.555 C192.681,34.315 192.728,34.885 192.776,35.314 C192.823,35.741 192.966,36.074 193.156,36.264 C193.346,36.454 193.679,36.597 194.059,36.644 C194.487,36.692 195.057,36.74 195.77,36.74 L196.91,36.74 L196.91,36.692 L196.911,36.692 Z M219.772,30.656 C219.772,29.326 219.962,28.089 220.437,26.949 C220.847336,25.8361626 221.477909,24.8175189 222.291,23.954 C223.104285,23.0894958 224.093069,22.4089401 225.191,21.958 C226.331,21.483 227.567,21.245 228.992,21.245 C230.371,21.245 231.654,21.483 232.747,21.958 C233.887,22.433 234.838,23.098 235.599,23.954 C236.359,24.81 237.025,25.808 237.452,26.949 C237.88,28.089 238.118,29.325 238.118,30.656 C238.118,31.986 237.88,33.222 237.452,34.363 C237.041842,35.4753987 236.411619,36.4936861 235.599,37.357 C234.785813,38.2218653 233.797023,38.902767 232.699,39.354 C231.559,39.829 230.323,40.067 228.897,40.067 C227.471,40.067 226.188,39.829 225.095,39.354 C223.996977,38.902767 223.008187,38.2218653 222.195,37.357 C221.382381,36.4936861 220.752158,35.4753987 220.342,34.363 C219.962,33.223 219.772,31.987 219.772,30.656 L219.772,30.656 Z M224.002,30.656 C224.002,32.462 224.43,33.936 225.285,35.029 C226.141,36.122 227.376,36.644 228.897,36.644 C230.418,36.644 231.654,36.122 232.51,35.029 C233.365,33.935 233.793,32.509 233.793,30.656 C233.793,28.802 233.365,27.376 232.51,26.331 C231.654,25.285 230.418,24.715 228.897,24.715 C227.377,24.715 226.141,25.238 225.285,26.331 C224.43,27.376 224.002,28.802 224.002,30.656 L224.002,30.656 Z M249.715,36.692 L249.335,40.114 L246.198,40.114 C245.39,40.114 244.677,39.971 244.058,39.734 C243.441,39.496 242.918,39.164 242.538,38.736 C242.158,38.308 241.825,37.833 241.635,37.262 C241.444202,36.6790736 241.347983,36.069354 241.35,35.456 L241.35,24.905 L238.593,24.905 L238.973,21.53 L241.35,21.53 L241.35,16.112 L245.485,15.684 L245.485,21.53 L249.715,21.53 L249.715,24.905 L245.485,24.905 L245.485,33.555 C245.485,34.315 245.532,34.885 245.58,35.314 C245.627,35.741 245.77,36.074 245.96,36.264 C246.15,36.454 246.483,36.597 246.863,36.644 C247.291,36.692 247.861,36.74 248.574,36.74 L249.714,36.74 L249.714,36.692 L249.715,36.692 Z M87.31,36.692 L86.93,40.114 L83.793,40.114 C82.985,40.114 82.272,39.971 81.654,39.734 C81.036,39.496 80.514,39.164 80.134,38.736 C79.7187703,38.3243118 79.4087083,37.8187462 79.23,37.262 C79.0392015,36.6790736 78.9429833,36.069354 78.945,35.456 L78.945,24.905 L76.188,24.905 L76.568,21.53 L78.945,21.53 L78.945,16.112 L83.08,15.684 L83.08,21.53 L87.31,21.53 L87.31,24.905 L83.08,24.905 L83.08,33.555 C83.08,34.315 83.127,34.885 83.175,35.314 C83.222,35.741 83.365,36.074 83.555,36.264 C83.745,36.454 84.078,36.597 84.458,36.644 C84.886,36.692 85.456,36.74 86.169,36.74 L87.309,36.74 L87.309,36.692 L87.31,36.692 Z" fill="#ED3E44"></path><path d="M30,0 C13.438,0 0,13.438 0,30 C0,46.562 13.438,60 30,60 C46.562,60 60,46.562 60,30 C60,13.438 46.562,0 30,0 Z" fill="#ED3E44"></path><path d="M21.2299995,32.414 L21.2299995,40.97 C21.6579995,41.445 21.8899994,42.063 21.8899994,42.728 C21.8899994,43.584 21.5179996,44.344 20.8999996,44.819 L20.1399994,44.059 C20.5688119,43.7320619 20.8108663,43.2201202 20.7999992,42.681 C20.7999992,41.73 20.0410002,40.97 19.0900002,40.97 C18.1400002,40.97 17.3799992,41.73 17.3799992,42.68 C17.3799992,43.251 17.6600009,43.726 18.0400009,44.011 L17.2800007,44.771 C16.6731072,44.2583812 16.3417041,43.5615659 16.3299999,42.7269594 C16.3330002,42.015 16.572,41.397 17,40.922 L17,27.614 C17.047,27.091 17.478,26.711 18,26.711 L42.538,26.711 C43.061,26.711 43.441,27.139 43.488,27.614 L43.488,40.97 C43.916,41.445 44.154,42.063 44.154,42.728 C44.154,43.584 43.774,44.344 43.156,44.819 L42.396,44.059 C42.823,43.726 43.061,43.251 43.061,42.729 C43.061,41.778 42.301,41.017 41.35,41.017 C40.4,41.017 39.639,41.777 39.639,42.728 C39.639,43.298 39.924,43.774 40.304,44.106 L39.544,44.866 C38.926,44.344 38.546,43.584 38.546,42.776 C38.546,42.11 38.783,41.492 39.211,41.017 L39.211,32.462 L37.975,32.462 L37.975,50.522 L38.783,50.998 L38.783,52.471 L30.751,52.471 L30.751,50.998 L31.559,50.523 L31.559,45.057 L29.135,45.057 L29.135,50.523 L29.943,50.998 L29.943,52.471 L21.768,52.471 L21.768,50.998 L22.576,50.523 L22.576,32.414 L21.2299995,32.414 Z M30.371,12.833 C32.081,12.833 33.603,13.451 34.553,14.353 L35.313,13.308 C34.125,12.262 32.367,11.549 30.371,11.549 C28.375,11.549 26.616,12.215 25.428,13.308 L26.188,14.354 C27.138,13.451 28.66,12.833 30.371,12.833 L30.371,12.833 Z" fill="#FFFFFF"></path><path d="M30.418,10.124 C32.272,10.124 33.983,10.646 35.314,11.644 C35.551,11.834 35.789,12.072 36.027,12.262 L36.787,11.169 C35.314,9.743 33.032,8.793 30.466,8.793 C27.852,8.793 25.476,9.743 24.049,11.264 L24.809,12.357 C25.048,12.072 25.333,11.835 25.618,11.597 C26.806,10.647 28.565,10.124 30.418,10.124 L30.418,10.124 Z" fill="#FFFFFF"></path><path d="M30.37,7.51 C33.317,7.51 35.932,8.603 37.452,10.219 L38.212,9.173 C36.407,7.414 33.555,6.226 30.371,6.226 C27.186,6.226 24.335,7.366 22.529,9.173 L23.289,10.219 C24.809,8.555 27.424,7.509 30.371,7.509 L30.37,7.51 Z M27.994,20.105 C27.994,20.532 27.614,20.913 27.186,20.913 C26.7452683,20.8999598 26.3910402,20.5457317 26.378,20.105 C26.378,19.677 26.758,19.297 27.186,19.297 C27.662,19.297 27.994,19.629 27.994,20.105 L27.994,20.105 Z" fill="#FFFFFF"></path><path d="M33.555,21.673 C32.6921861,21.6653977 31.9946023,20.9678139 31.987,20.105 C31.987,19.249 32.7,18.536 33.555,18.536 C34.411,18.536 35.124,19.249 35.124,20.105 C35.124,20.96 34.411,21.673 33.555,21.673 L33.555,21.673 Z M27.186,21.673 C26.3231861,21.6653977 25.6256023,20.9678139 25.618,20.105 C25.618,19.249 26.331,18.536 27.186,18.536 C28.042,18.536 28.755,19.249 28.755,20.105 C28.802,20.96 28.089,21.673 27.186,21.673 L27.186,21.673 Z M36.597,15.732 L24.144,15.732 C23.622,15.732 23.194,16.16 23.194,16.635 L23.194,24.715 C23.194,25.238 23.622,25.618 24.144,25.618 L36.597,25.618 C36.8365719,25.6182657 37.0664079,25.5232139 37.2358109,25.3538109 C37.4052139,25.1844079 37.5002657,24.9545719 37.5,24.715 L37.5,16.635 C37.5,16.16 37.072,15.732 36.597,15.732 L36.597,15.732 Z" fill="#FFFFFF"></path><path d="M34.363,20.105 C34.363,20.532 33.983,20.913 33.555,20.913 C33.1142683,20.8999598 32.7600402,20.5457317 32.747,20.105 C32.747,19.677 33.127,19.297 33.555,19.297 C33.983,19.297 34.363,19.629 34.363,20.105 L34.363,20.105 Z" fill="#FFFFFF"></path>
</svg>
